public/images/icons/economic-survey.svg

<svg width="40" height="40" viewBox="0 0 40 40" fill="none" xmlns="http://www.w3.org/2000/svg">
    <path d="M12.5 37.5C18.0228 37.5 22.5 33.0228 22.5 27.5C22.5 21.9772 18.0228 17.5 12.5 17.5C6.97715 17.5 2.5 21.9772 2.5 27.5C2.5 33.0228 6.97715 37.5 12.5 37.5Z" fill="#FFCE4B"/>
    <path d="M12.5 35C16.6421 35 20 31.6421 20 27.5C20 23.3579 16.6421 20 12.5 20C8.35786 20 5 23.3579 5 27.5C5 31.6421 8.35786 35 12.5 35Z" fill="#F9B32F"/>
    <path fill-rule="evenodd" clip-rule="evenodd" d="M11.875 23.125C10.4944 23.125 9.375 24.2444 9.375 25.625C9.375 27.0056 10.4944 28.125 11.875 28.125V30.625C11.1844 30.625 10.625 30.0656 10.625 29.375C10.625 29.03 10.345 28.75 10 28.75C9.655 28.75 9.375 29.03 9.375 29.375C9.375 30.7556 10.4944 31.875 11.875 31.875V32.5C11.875 32.845 12.155 33.125 12.5 33.125C12.845 33.125 13.125 32.845 13.125 32.5V31.875C14.5056 31.875 15.625 30.7556 15.625 29.375C15.625 27.9944 14.5056 26.875 13.125 26.875V24.375C13.8156 24.375 14.375 24.9344 14.375 25.625C14.375 25.97 14.655 26.25 15 26.25C15.345 26.25 15.625 25.97 15.625 25.625C15.625 24.2444 14.5056 23.125 13.125 23.125V22.5C13.125 22.155 12.845 21.875 12.5 21.875C12.155 21.875 11.875 22.155 11.875 22.5V23.125ZM13.125 28.125V30.625C13.8156 30.625 14.375 30.0656 14.375 29.375C14.375 28.6844 13.8156 28.125 13.125 28.125ZM11.875 24.375C11.1844 24.375 10.625 24.9344 10.625 25.625C10.625 26.3156 11.1844 26.875 11.875 26.875V24.375Z" fill="#FFCE4B"/>
    <path fill-rule="evenodd" clip-rule="evenodd" d="M37.5 33.75C37.5 33.4188 37.3681 33.1006 37.1338 32.8662C36.8994 32.6319 36.5812 32.5 36.25 32.5C33.425 32.5 26.575 32.5 23.75 32.5C23.4188 32.5 23.1006 32.6319 22.8662 32.8662C22.6319 33.1006 22.5 33.4188 22.5 33.75V36.25C22.5 36.5812 22.6319 36.8994 22.8662 37.1338C23.1006 37.3681 23.4188 37.5 23.75 37.5H36.25C36.5812 37.5 36.8994 37.3681 37.1338 37.1338C37.3681 36.8994 37.5 36.5812 37.5 36.25C37.5 35.4862 37.5 34.5138 37.5 33.75Z" fill="#FFCE4B"/>
    <path fill-rule="evenodd" clip-rule="evenodd" d="M37.5 28.75C37.5 28.4188 37.3681 28.1006 37.1338 27.8662C36.8994 27.6319 36.5812 27.5 36.25 27.5C33.425 27.5 26.575 27.5 23.75 27.5C23.4188 27.5 23.1006 27.6319 22.8662 27.8662C22.6319 28.1006 22.5 28.4188 22.5 28.75V31.25C22.5 31.5812 22.6319 31.8994 22.8662 32.1338C23.1006 32.3681 23.4188 32.5 23.75 32.5H36.25C36.5812 32.5 36.8994 32.3681 37.1338 32.1338C37.3681 31.8994 37.5 31.5812 37.5 31.25C37.5 30.4862 37.5 29.5138 37.5 28.75Z" fill="#F9B32F"/>
    <path fill-rule="evenodd" clip-rule="evenodd" d="M37.5 23.75C37.5 23.4188 37.3681 23.1006 37.1338 22.8662C36.8994 22.6319 36.5812 22.5 36.25 22.5C33.425 22.5 26.575 22.5 23.75 22.5C23.4188 22.5 23.1006 22.6319 22.8662 22.8662C22.6319 23.1006 22.5 23.4188 22.5 23.75V26.25C22.5 26.5812 22.6319 26.8994 22.8662 27.1338C23.1006 27.3681 23.4188 27.5 23.75 27.5H36.25C36.5812 27.5 36.8994 27.3681 37.1338 27.1338C37.3681 26.8994 37.5 26.5812 37.5 26.25C37.5 25.4862 37.5 24.5138 37.5 23.75Z" fill="#FFCE4B"/>
    <path fill-rule="evenodd" clip-rule="evenodd" d="M7.5 2.5C10.2594 2.5 12.5 4.74063 12.5 7.5C12.5 10.2594 10.2594 12.5 7.5 12.5C4.74063 12.5 2.5 10.2594 2.5 7.5V3.75C2.5 3.05937 3.05937 2.5 3.75 2.5H7.5Z" fill="#2DCC70"/>
    <path fill-rule="evenodd" clip-rule="evenodd" d="M17.5 2.5H21.25C21.9406 2.5 22.5 3.05937 22.5 3.75V7.5C22.5 10.2594 20.2594 12.5 17.5 12.5C14.7406 12.5 12.5 10.2594 12.5 7.5C12.5 4.74063 14.7406 2.5 17.5 2.5Z" fill="#2DCC70"/>
    <path fill-rule="evenodd" clip-rule="evenodd" d="M11.2498 17.5774V14.5711C11.2498 13.5761 10.8548 12.6223 10.1517 11.9192C8.30422 10.0717 6.61609 8.3836 6.61609 8.3836C6.12797 7.8961 6.12797 7.10359 6.61609 6.61609C7.10359 6.12797 7.8961 6.12797 8.3836 6.61609C8.3836 6.61609 10.0717 8.30421 11.9192 10.1517C12.1298 10.3617 12.3236 10.5855 12.4998 10.8211C12.6761 10.5855 12.8698 10.3617 13.0805 10.1517C14.928 8.30421 16.6161 6.61609 16.6161 6.61609C17.1036 6.12797 17.8961 6.12797 18.3836 6.61609C18.8717 7.10359 18.8717 7.8961 18.3836 8.3836C18.3836 8.3836 16.6955 10.0717 14.848 11.9192C14.1448 12.6223 13.7498 13.5761 13.7498 14.5711V17.5774C13.3405 17.5261 12.923 17.4998 12.4998 17.4998C12.0767 17.4998 11.6592 17.5261 11.2498 17.5774Z" fill="#0DAC50"/>
</svg>

<svg width="40" height="40" fill="none" xmlns="http://www.w3.org/2000/svg"><path d="M12.5 37.5c5.523 0 10-4.477 10-10s-4.477-10-10-10-10 4.477-10 10 4.477 10 10 10Z" fill="#FFCE4B"/><path d="M12.5 35a7.5 7.5 0 1 0 0-15 7.5 7.5 0 0 0 0 15Z" fill="#F9B32F"/><path fill-rule="evenodd" clip-rule="evenodd" d="M11.875 23.125a2.5 2.5 0 0 0 0 5v2.5c-.69 0-1.25-.56-1.25-1.25a.625.625 0 0 0-1.25 0 2.5 2.5 0 0 0 2.5 2.5v.625a.625.625 0 0 0 1.25 0v-.625a2.5 2.5 0 0 0 0-5v-2.5c.69 0 1.25.56 1.25 1.25a.625.625 0 0 0 1.25 0 2.5 2.5 0 0 0-2.5-2.5V22.5a.625.625 0 0 0-1.25 0v.625Zm1.25 5v2.5a1.25 1.25 0 1 0 0-2.5Zm-1.25-3.75a1.25 1.25 0 1 0 0 2.5v-2.5ZM37.5 33.75a1.25 1.25 0 0 0-1.25-1.25h-12.5a1.25 1.25 0 0 0-1.25 1.25v2.5a1.25 1.25 0 0 0 1.25 1.25h12.5a1.25 1.25 0 0 0 1.25-1.25v-2.5Z" fill="#FFCE4B"/><path fill-rule="evenodd" clip-rule="evenodd" d="M37.5 28.75a1.25 1.25 0 0 0-1.25-1.25h-12.5a1.25 1.25 0 0 0-1.25 1.25v2.5a1.25 1.25 0 0 0 1.25 1.25h12.5a1.25 1.25 0 0 0 1.25-1.25v-2.5Z" fill="#F9B32F"/><path fill-rule="evenodd" clip-rule="evenodd" d="M37.5 23.75a1.25 1.25 0 0 0-1.25-1.25h-12.5a1.25 1.25 0 0 0-1.25 1.25v2.5a1.25 1.25 0 0 0 1.25 1.25h12.5a1.25 1.25 0 0 0 1.25-1.25v-2.5Z" fill="#FFCE4B"/><path fill-rule="evenodd" clip-rule="evenodd" d="M7.5 2.5c2.76 0 5 2.24 5 5s-2.24 5-5 5-5-2.24-5-5V3.75c0-.69.56-1.25 1.25-1.25H7.5ZM17.5 2.5h3.75c.69 0 1.25.56 1.25 1.25V7.5c0 2.76-2.24 5-5 5s-5-2.24-5-5 2.24-5 5-5Z" fill="#2DCC70"/><path fill-rule="evenodd" clip-rule="evenodd" d="M11.25 17.577v-3.006a3.75 3.75 0 0 0-1.098-2.652L6.616 8.384a1.25 1.25 0 1 1 1.768-1.768l3.535 3.536c.21.21.405.434.58.67.177-.236.37-.46.582-.67l3.535-3.536a1.25 1.25 0 1 1 1.768 1.768l-3.536 3.535a3.75 3.75 0 0 0-1.098 2.652v3.006a10.052 10.052 0 0 0-2.5 0Z" fill="#0DAC50"/></svg>
